
MODULE IST1_PRG3_VS1_HZRLK
	PROC I1fikstur3()
        DeactUnit STN2;
        DeactUnit STN1;
        MoveAbsJ ROBOT_HOME\NoEOffs, v2000, z50, tWeldGun;
        ActUnit STN1;
        MoveL [[585.59,-0.16,1437.17],[0.242234,1.02527E-05,0.970218,-7.11834E-06],[0,-1,0,0],[0.000263524,-45.6428,9E+09,9E+09,9E+09,9E+09]], v2000, z50, tWeldGun;
        DeactUnit STN1;
        TPWrite "ist2fikstür1calisiyor";
        DeactUnit STN1;
        DeactUnit STN2;
        MoveAbsJ ROBOT_HOME\NoEOffs, v2000, z50, tWeldGun;
        ActUnit STN2;
        MoveAbsJ HOME_STN2\NoEOffs, v2000, z50, tWeldGun;
        DeactUnit STN2;
        ActUnit STN2;
        MoveJ [[585.61,-0.17,1437.18],[0.242246,5.29574E-06,0.970215,-1.34255E-05],[0,-1,0,0],[9E+09,9E+09,-0.00101639,-184.293,9E+09,9E+09]], v2000, z50, tWeldGun;
        DeactUnit STN2;
        MoveJ [[227.46,686.11,376.48],[0.0205146,0.0557689,0.998094,-0.0166629],[0,-1,0,0],[9E+09,9E+09,9E+09,9E+09,9E+09,9E+09]], v2000, z50, tWeldGun;
        MoveL [[227.46,686.11,294.54],[0.020512,0.0557705,0.998094,-0.0166624],[0,-1,0,0],[9E+09,9E+09,9E+09,9E+09,9E+09,9E+09]], v2000, z50, tWeldGun;
        ArcLStart [[232.69,685.35,281.71],[0.0220165,0.151383,0.988122,-0.0146212],[0,-1,0,0],[9E+09,9E+09,9E+09,9E+09,9E+09,9E+09]], v2000, seam1, weld1, fine, tWeldGun;
        ArcLEnd [[204.40,685.78,286.24],[0.0220225,0.151382,0.988122,-0.0146129],[0,-1,1,0],[9E+09,9E+09,9E+09,9E+09,9E+09,9E+09]], v2000, seam1, weld1, fine, tWeldGun;
        ArcLEnd [[201.44,-1429.64,297.18],[0.0220114,0.151381,0.988122,-0.014619],[-1,0,-1,0],[9E+09,9E+09,9E+09,9E+09,9E+09,9E+09]], v2000, seam1, weld1, fine, tWeldGun;
        MoveL [[360.31,683.49,322.10],[0.022015,0.151384,0.988122,-0.0146162],[0,-1,0,0],[9E+09,9E+09,9E+09,9E+09,9E+09,9E+09]], v2000, z50, tWeldGun;
        ArcLStart [[360.31,682.20,282.08],[0.0220179,0.151375,0.988123,-0.0146104],[0,-1,0,0],[9E+09,9E+09,9E+09,9E+09,9E+09,9E+09]], v2000, seam1, weld1, fine, tWeldGun;
        ArcLEnd [[337.05,683.12,282.07],[0.0220149,0.151379,0.988122,-0.0146149],[0,-1,0,0],[9E+09,9E+09,9E+09,9E+09,9E+09,9E+09]], v2000, seam1, weld1, fine, tWeldGun;
        MoveL [[337.03,684.31,405.93],[0.0220006,0.151393,0.988121,-0.0146124],[0,-1,0,0],[9E+09,9E+09,9E+09,9E+09,9E+09,9E+09]], v2000, z50, tWeldGun;
        MoveJ [[878.80,801.15,405.93],[0.0219988,0.151397,0.98812,-0.0146186],[0,-1,0,0],[9E+09,9E+09,9E+09,9E+09,9E+09,9E+09]], v2000, z50, tWeldGun;
        MoveL [[885.31,824.03,181.60],[0.0330437,-0.478737,-0.876811,-0.0303649],[0,0,0,0],[9E+09,9E+09,9E+09,9E+09,9E+09,9E+09]], v2000, z50, tWeldGun;
        ArcLStart [[885.31,828.29,166.92],[0.033045,-0.478735,-0.876812,-0.030367],[0,0,0,0],[9E+09,9E+09,9E+09,9E+09,9E+09,9E+09]], v2000, seam1, weld1, fine, tWeldGun;
        ArcLEnd [[871.12,829.39,166.88],[0.0330391,-0.478731,-0.876814,-0.0303697],[0,0,1,0],[9E+09,9E+09,9E+09,9E+09,9E+09,9E+09]], v2000, seam1, weld1, fine, tWeldGun;
        MoveL [[868.83,821.92,197.18],[0.0330509,-0.478741,-0.876808,-0.0303731],[0,0,1,0],[9E+09,9E+09,9E+09,9E+09,9E+09,9E+09]], v2000, z50, tWeldGun;
        MoveJ [[900.46,854.52,238.92],[0.00620202,0.0424033,-0.998888,0.0196681],[0,-1,0,0],[9E+09,9E+09,9E+09,9E+09,9E+09,9E+09]], v2000, z50, tWeldGun;
        MoveL [[890.60,848.82,187.79],[0.010487,0.132277,-0.990968,0.0193656],[0,-1,0,0],[9E+09,9E+09,9E+09,9E+09,9E+09,9E+09]], v2000, z50, tWeldGun;
        ArcLStart [[890.60,847.78,166.66],[0.01048,0.132278,-0.990968,0.0193698],[0,-1,0,0],[9E+09,9E+09,9E+09,9E+09,9E+09,9E+09]], v2000, seam1, weld1, fine, tWeldGun;
        ArcLEnd [[874.03,848.28,166.66],[0.0104795,0.132281,-0.990968,0.0193657],[0,-1,0,0],[9E+09,9E+09,9E+09,9E+09,9E+09,9E+09]], v2000, seam1, weld1, fine, tWeldGun;
        MoveL [[874.03,849.16,211.56],[0.0104822,0.132275,-0.990968,0.0193664],[0,-1,0,0],[9E+09,9E+09,9E+09,9E+09,9E+09,9E+09]], v2000, z50, tWeldGun;
        MoveL [[813.64,763.73,233.57],[0.1907,0.412211,-0.887192,0.0812741],[0,-1,-1,0],[9E+09,9E+09,9E+09,9E+09,9E+09,9E+09]], v2000, z50, tWeldGun;
        ArcLStart [[813.65,742.77,215.84],[0.190696,0.412219,-0.887189,0.0812797],[0,-1,-1,0],[9E+09,9E+09,9E+09,9E+09,9E+09,9E+09]], v2000, seam1, weld1, fine, tWeldGun;
        ArcLEnd [[801.21,743.19,215.84],[0.190698,0.412215,-0.887191,0.0812761],[0,-1,-1,0],[9E+09,9E+09,9E+09,9E+09,9E+09,9E+09]], v2000, seam1, weld1, fine, tWeldGun;
        MoveL [[794.10,767.74,233.72],[0.186705,0.600055,-0.769949,0.110693],[0,-1,-1,0],[9E+09,9E+09,9E+09,9E+09,9E+09,9E+09]], v2000, z50, tWeldGun;
        ArcLStart [[787.95,738.70,225.72],[0.186702,0.600058,-0.769948,0.110689],[0,-1,-1,0],[9E+09,9E+09,9E+09,9E+09,9E+09,9E+09]], v2000, seam1, weld1, fine, tWeldGun;
        ArcLEnd [[777.43,737.88,226.28],[0.159351,0.425317,-0.878633,0.147367],[0,-1,0,0],[9E+09,9E+09,9E+09,9E+09,9E+09,9E+09]], v2000, seam1, weld1, fine, tWeldGun;
        MoveL [[794.10,767.74,233.72],[0.186705,0.600055,-0.769949,0.110693],[0,-1,-1,0],[9E+09,9E+09,9E+09,9E+09,9E+09,9E+09]], v2000, z50, tWeldGun;
        MoveJ [[936.48,774.43,258.68],[0.0360267,0.926442,-0.369006,0.0651252],[0,-1,-1,0],[9E+09,9E+09,9E+09,9E+09,9E+09,9E+09]], v2000, z50, tWeldGun;
        MoveL [[968.91,735.31,234.18],[0.0360265,0.926436,-0.369025,0.065107],[0,-1,-1,0],[9E+09,9E+09,9E+09,9E+09,9E+09,9E+09]], v2000, z50, tWeldGun;
        ArcLStart [[970.26,722.15,221.95],[0.0360252,0.926436,-0.369026,0.065107],[0,-1,-1,0],[9E+09,9E+09,9E+09,9E+09,9E+09,9E+09]], v2000, seam1, weld1, fine, tWeldGun;
        ArcLEnd [[988.64,722.15,221.94],[0.0360249,0.926435,-0.369028,0.0651056],[0,-1,-1,0],[9E+09,9E+09,9E+09,9E+09,9E+09,9E+09]], v2000, seam1, weld1, fine, tWeldGun;
        MoveL [[968.91,735.31,234.18],[0.0360265,0.926436,-0.369025,0.065107],[0,-1,-1,0],[9E+09,9E+09,9E+09,9E+09,9E+09,9E+09]], v2000, z50, tWeldGun;
        ArcLStart [[989.15,736.41,222.17],[0.0376214,0.93526,-0.346052,0.0642034],[0,-1,-1,0],[9E+09,9E+09,9E+09,9E+09,9E+09,9E+09]], v2000, seam1, weld1, fine, tWeldGun;
        ArcL [[989.15,728.35,222.94],[0.0376236,0.935258,-0.346058,0.0641982],[0,-1,-1,0],[9E+09,9E+09,9E+09,9E+09,9E+09,9E+09]], v2000, seam1, weld1, z10, tWeldGun;
        ArcLEnd [[988.73,722.11,222.10],[0.0376208,0.935257,-0.34606,0.0641976],[0,-1,-1,0],[9E+09,9E+09,9E+09,9E+09,9E+09,9E+09]], v2000, seam1, weld1, fine, tWeldGun;
        MoveL [[972.00,770.77,245.83],[0.0376281,0.935258,-0.346058,0.0641913],[0,-1,-1,0],[9E+09,9E+09,9E+09,9E+09,9E+09,9E+09]], v2000, z50, tWeldGun;
        MoveJ [[971.99,816.66,401.99],[0.0376205,0.935258,-0.346062,0.0641803],[0,-1,-1,0],[9E+09,9E+09,9E+09,9E+09,9E+09,9E+09]], v2000, z50, tWeldGun;
        MoveJ [[965.49,667.67,396.94],[0.127296,-0.925849,-0.336257,-0.116322],[0,0,-3,0],[9E+09,9E+09,9E+09,9E+09,9E+09,9E+09]], v2000, z50, tWeldGun;
        MoveL [[965.48,695.92,221.40],[0.127297,-0.925849,-0.336256,-0.116323],[0,0,-3,0],[9E+09,9E+09,9E+09,9E+09,9E+09,9E+09]], v2000, z50, tWeldGun;
        ArcLStart [[965.49,716.76,221.41],[0.127295,-0.925848,-0.336261,-0.116321],[0,0,-3,0],[9E+09,9E+09,9E+09,9E+09,9E+09,9E+09]], v2000, seam1, weld1, fine, tWeldGun;
        ArcLEnd [[983.99,716.57,221.40],[0.127301,-0.925849,-0.336254,-0.116322],[0,0,-3,0],[9E+09,9E+09,9E+09,9E+09,9E+09,9E+09]], v2000, seam1, weld1, fine, tWeldGun;
        MoveL [[965.48,695.92,221.40],[0.127297,-0.925849,-0.336256,-0.116323],[0,0,-3,0],[9E+09,9E+09,9E+09,9E+09,9E+09,9E+09]], v2000, z50, tWeldGun;
        MoveJ [[794.90,667.97,244.13],[0.117305,-0.895083,-0.411206,-0.126394],[0,0,-3,0],[9E+09,9E+09,9E+09,9E+09,9E+09,9E+09]], v2000, z50, tWeldGun;
        MoveL [[794.90,700.98,221.21],[0.117307,-0.895081,-0.411212,-0.126388],[0,0,-3,0],[9E+09,9E+09,9E+09,9E+09,9E+09,9E+09]], v2000, z50, tWeldGun;
        ArcLStart [[794.90,716.39,217.95],[0.117308,-0.895083,-0.411207,-0.126388],[0,0,-3,0],[9E+09,9E+09,9E+09,9E+09,9E+09,9E+09]], v2000, seam1, weld1, fine, tWeldGun;
        ArcLEnd [[809.83,715.66,218.05],[0.127291,-0.925846,-0.336265,-0.116329],[0,0,-3,0],[9E+09,9E+09,9E+09,9E+09,9E+09,9E+09]], v2000, seam1, weld1, fine, tWeldGun;
        MoveL [[794.90,700.98,221.21],[0.117307,-0.895081,-0.411212,-0.126388],[0,0,-3,0],[9E+09,9E+09,9E+09,9E+09,9E+09,9E+09]], v2000, z50, tWeldGun;
        MoveJ [[797.92,680.46,245.86],[0.227336,-0.529604,-0.815366,-0.0549174],[0,0,-4,0],[9E+09,9E+09,9E+09,9E+09,9E+09,9E+09]], v2000, z50, tWeldGun;
        ArcLStart [[780.49,718.55,226.62],[0.22733,-0.529602,-0.815368,-0.05493],[0,0,-4,0],[9E+09,9E+09,9E+09,9E+09,9E+09,9E+09]], v2000, seam1, weld1, fine, tWeldGun;
        ArcLEnd [[772.00,716.10,227.57],[0.215095,-0.387284,-0.891806,-0.0918035],[0,0,-4,0],[9E+09,9E+09,9E+09,9E+09,9E+09,9E+09]], v2000, seam1, weld1, fine, tWeldGun;
        MoveL [[797.92,680.46,245.86],[0.227336,-0.529604,-0.815366,-0.0549174],[0,0,-4,0],[9E+09,9E+09,9E+09,9E+09,9E+09,9E+09]], v2000, z50, tWeldGun;
        MoveJ [[797.94,680.47,436.97],[0.0309937,-0.00566393,-0.999499,-0.00302165],[0,0,-4,0],[9E+09,9E+09,9E+09,9E+09,9E+09,9E+09]], v2000, z50, tWeldGun;
        MoveJ [[547.53,920.92,329.21],[0.0762181,-0.00548995,-0.997071,-0.00311609],[0,0,-4,0],[9E+09,9E+09,9E+09,9E+09,9E+09,9E+09]], v2000, z50, tWeldGun;
        ArcLStart [[506.87,920.93,262.29],[0.0762239,-0.00549651,-0.997071,-0.00312161],[0,0,-4,0],[9E+09,9E+09,9E+09,9E+09,9E+09,9E+09]], v2000, seam1, weld1, fine, tWeldGun;
        ArcL [[504.77,931.57,258.55],[0.07623,-0.00549911,-0.99707,-0.00311927],[0,0,-4,0],[9E+09,9E+09,9E+09,9E+09,9E+09,9E+09]], v2000, seam1, weld1, z10, tWeldGun;
        ArcL [[502.46,937.24,250.54],[0.104845,0.245579,-0.963591,-0.0138101],[0,0,-4,0],[9E+09,9E+09,9E+09,9E+09,9E+09,9E+09]], v2000, seam1, weld1, z10, tWeldGun;
        ArcLEnd [[499.31,939.36,247.06],[0.168832,0.410155,-0.896252,-0.000888545],[0,0,-4,0],[9E+09,9E+09,9E+09,9E+09,9E+09,9E+09]], v2000, seam1, weld1, fine, tWeldGun;
        MoveL [[514.88,947.66,261.82],[0.168834,0.410146,-0.896256,-0.000886621],[0,0,-4,0],[9E+09,9E+09,9E+09,9E+09,9E+09,9E+09]], v2000, z50, tWeldGun;
        MoveJ [[518.06,920.94,274.31],[0.0762164,-0.00549544,-0.997071,-0.00313232],[0,0,-4,0],[9E+09,9E+09,9E+09,9E+09,9E+09,9E+09]], v2000, z50, tWeldGun;
        ArcLStart [[505.05,920.93,260.79],[0.0762238,-0.00549496,-0.997071,-0.00312007],[0,0,-4,0],[9E+09,9E+09,9E+09,9E+09,9E+09,9E+09]], v2000, seam1, weld1, fine, tWeldGun;
        ArcL [[505.95,909.77,258.63],[0.076225,-0.00548631,-0.997071,-0.00311554],[0,0,-4,0],[9E+09,9E+09,9E+09,9E+09,9E+09,9E+09]], v2000, seam1, weld1, z10, tWeldGun;
        ArcL [[498.86,903.91,252.21],[0.0724149,-0.357238,-0.930893,0.0239968],[0,0,-4,0],[9E+09,9E+09,9E+09,9E+09,9E+09,9E+09]], v2000, seam1, weld1, z10, tWeldGun;
        ArcLEnd [[491.17,901.67,247.66],[0.169245,-0.465099,-0.868919,-0.00431352],[0,0,-4,0],[9E+09,9E+09,9E+09,9E+09,9E+09,9E+09]], v2000, seam1, weld1, fine, tWeldGun;
        MoveL [[491.17,880.19,253.09],[0.16925,-0.465099,-0.868918,-0.00431389],[0,0,-4,0],[9E+09,9E+09,9E+09,9E+09,9E+09,9E+09]], v2000, z50, tWeldGun;
        MoveJ [[341.26,845.88,380.05],[0.0578051,-0.80377,-0.591166,-0.0336957],[0,0,-3,0],[9E+09,9E+09,9E+09,9E+09,9E+09,9E+09]], v2000, z50, tWeldGun;
        MoveJ [[238.70,819.62,401.72],[0.0578035,-0.803773,-0.591162,-0.0336959],[0,0,-3,0],[9E+09,9E+09,9E+09,9E+09,9E+09,9E+09]], v2000, z50, tWeldGun;
        MoveL [[189.44,899.41,410.95],[0.112088,-0.830759,-0.49964,-0.218258],[0,-1,-2,0],[9E+09,9E+09,9E+09,9E+09,9E+09,9E+09]], v2000, z50, tWeldGun;
        ArcLStart [[189.44,921.08,410.94],[0.112083,-0.830759,-0.499641,-0.218256],[0,-1,-2,0],[9E+09,9E+09,9E+09,9E+09,9E+09,9E+09]], v2000, seam1, weld1, fine, tWeldGun;
        ArcLEnd [[193.46,921.08,408.16],[0.112083,-0.830759,-0.499641,-0.218256],[0,-1,-2,0],[9E+09,9E+09,9E+09,9E+09,9E+09,9E+09]], v2000, seam1, weld1, fine, tWeldGun;
        MoveL [[193.47,888.25,408.16],[0.112079,-0.830764,-0.499636,-0.218253],[0,-1,-2,0],[9E+09,9E+09,9E+09,9E+09,9E+09,9E+09]], v2000, z50, tWeldGun;
        MoveJ [[238.70,819.62,401.72],[0.0578035,-0.803773,-0.591162,-0.0336959],[0,0,-3,0],[9E+09,9E+09,9E+09,9E+09,9E+09,9E+09]], v2000, z50, tWeldGun;
        MoveJ [[341.26,845.88,380.05],[0.0578051,-0.80377,-0.591166,-0.0336957],[0,0,-3,0],[9E+09,9E+09,9E+09,9E+09,9E+09,9E+09]], v2000, z50, tWeldGun;
        MoveL [[341.22,888.53,319.72],[0.0578107,-0.803775,-0.591159,-0.0336958],[0,0,-3,0],[9E+09,9E+09,9E+09,9E+09,9E+09,9E+09]], v2000, z50, tWeldGun;
        ArcLStart [[350.21,908.38,317.08],[0.0578143,-0.803774,-0.591159,-0.0336967],[0,0,-3,0],[9E+09,9E+09,9E+09,9E+09,9E+09,9E+09]], v2000, seam1, weld1, fine, tWeldGun;
        ArcLEnd [[430.72,906.21,267.59],[0.0603025,-0.847993,-0.525765,-0.0290199],[0,0,-3,0],[9E+09,9E+09,9E+09,9E+09,9E+09,9E+09]], v2000, seam1, weld1, fine, tWeldGun;
        MoveL [[430.73,887.78,267.59],[0.0602949,-0.84799,-0.52577,-0.0290278],[0,0,-3,0],[9E+09,9E+09,9E+09,9E+09,9E+09,9E+09]], v2000, z50, tWeldGun;
        MoveJ [[509.06,876.01,312.71],[0.00987833,0.92771,0.346509,0.138518],[0,-1,-2,0],[9E+09,9E+09,9E+09,9E+09,9E+09,9E+09]], v2000, z50, tWeldGun;
        MoveL [[526.22,897.32,263.63],[0.00987354,0.927712,0.346505,0.138516],[0,-1,-2,0],[9E+09,9E+09,9E+09,9E+09,9E+09,9E+09]], v2000, z50, tWeldGun;
        ArcLStart [[540.31,906.91,256.68],[0.00987854,0.927711,0.346508,0.138516],[0,-1,-2,0],[9E+09,9E+09,9E+09,9E+09,9E+09,9E+09]], v2000, seam1, weld1, fine, tWeldGun;
        ArcL [[545.35,900.58,241.09],[0.0468944,0.917674,0.323532,0.225836],[0,-1,-2,0],[9E+09,9E+09,9E+09,9E+09,9E+09,9E+09]], v2000, seam1, weld1, z10, tWeldGun;
        ArcLEnd [[546.09,900.25,236.25],[0.0261191,0.901367,0.325859,0.284027],[0,-1,-2,0],[9E+09,9E+09,9E+09,9E+09,9E+09,9E+09]], v2000, seam1, weld1, fine, tWeldGun;
        MoveL [[537.13,892.92,236.25],[0.0261208,0.901365,0.325865,0.284028],[0,-1,-2,0],[9E+09,9E+09,9E+09,9E+09,9E+09,9E+09]], v2000, z50, tWeldGun;
        MoveL [[510.40,864.32,464.00],[0.0266813,0.951269,0.307192,-0.00296332],[0,-1,-2,0],[9E+09,9E+09,9E+09,9E+09,9E+09,9E+09]], v2000, z50, tWeldGun;
        MoveJ [[357.34,963.36,490.75],[0.0656645,0.788987,-0.609952,0.0338599],[0,-1,-1,0],[9E+09,9E+09,9E+09,9E+09,9E+09,9E+09]], v2000, z50, tWeldGun;
        MoveJ [[220.07,1085.05,632.87],[0.0656658,0.788987,-0.609952,0.0338638],[0,0,-1,0],[9E+09,9E+09,9E+09,9E+09,9E+09,9E+09]], v2000, z50, tWeldGun;
        MoveL [[197.82,969.07,411.99],[0.0577058,0.764127,-0.598913,0.232557],[0,-1,-1,0],[9E+09,9E+09,9E+09,9E+09,9E+09,9E+09]], v2000, z50, tWeldGun;
        ArcLStart [[197.83,943.30,411.99],[0.0576959,0.764127,-0.598913,0.232562],[0,-1,-1,0],[9E+09,9E+09,9E+09,9E+09,9E+09,9E+09]], v2000, seam1, weld1, fine, tWeldGun;
        ArcLEnd [[204.40,943.30,407.65],[0.0576991,0.764126,-0.598913,0.232562],[0,-1,-1,0],[9E+09,9E+09,9E+09,9E+09,9E+09,9E+09]], v2000, seam1, weld1, fine, tWeldGun;
        MoveL [[197.82,969.07,411.99],[0.0577039,0.764125,-0.598916,0.232558],[0,-1,-1,0],[9E+09,9E+09,9E+09,9E+09,9E+09,9E+09]], v2000, z50, tWeldGun;
        MoveL [[220.07,1085.05,632.87],[0.065665,0.788988,-0.60995,0.0338654],[0,0,-1,0],[9E+09,9E+09,9E+09,9E+09,9E+09,9E+09]], v2000, z50, tWeldGun;
        MoveJ [[357.34,963.36,490.75],[0.0656645,0.788987,-0.609952,0.0338599],[0,-1,-1,0],[9E+09,9E+09,9E+09,9E+09,9E+09,9E+09]], v2000, z50, tWeldGun;
        MoveL [[357.33,963.36,315.61],[0.0656672,0.788983,-0.609957,0.0338562],[0,-1,-1,0],[9E+09,9E+09,9E+09,9E+09,9E+09,9E+09]], v2000, z50, tWeldGun;
        ArcLStart [[357.34,946.26,315.61],[0.0656627,0.788988,-0.60995,0.0338619],[0,-1,-1,0],[9E+09,9E+09,9E+09,9E+09,9E+09,9E+09]], v2000, seam1, weld1, fine, tWeldGun;
        ArcLEnd [[439.10,946.12,267.37],[0.0656597,0.788987,-0.609953,0.033859],[0,-1,-1,0],[9E+09,9E+09,9E+09,9E+09,9E+09,9E+09]], v2000, seam1, weld1, fine, tWeldGun;
        MoveL [[439.09,960.85,285.96],[0.0656664,0.788987,-0.609952,0.033859],[0,-1,-1,0],[9E+09,9E+09,9E+09,9E+09,9E+09,9E+09]], v2000, z50, tWeldGun;
        MoveL [[488.07,978.82,345.29],[0.0656663,0.788985,-0.609954,0.033857],[0,-1,-1,0],[9E+09,9E+09,9E+09,9E+09,9E+09,9E+09]], v2000, z50, tWeldGun;
        MoveJ [[616.99,886.88,345.30],[0.0230611,-0.351416,-0.935495,0.0286924],[0,0,1,0],[9E+09,9E+09,9E+09,9E+09,9E+09,9E+09]], v2000, z50, tWeldGun;
        MoveL [[591.02,898.22,262.24],[0.0230528,-0.351404,-0.9355,0.0287064],[0,0,1,0],[9E+09,9E+09,9E+09,9E+09,9E+09,9E+09]], v2000, z50, tWeldGun;
        ArcLStart [[583.65,902.31,252.20],[0.0230557,-0.351408,-0.935498,0.0286993],[0,0,1,0],[9E+09,9E+09,9E+09,9E+09,9E+09,9E+09]], v2000, seam1, weld1, fine, tWeldGun;
        ArcL [[586.05,900.05,245.07],[0.0551454,-0.35219,-0.934155,0.0166252],[0,0,0,0],[9E+09,9E+09,9E+09,9E+09,9E+09,9E+09]], v2000, seam1, weld1, z10, tWeldGun;
        ArcLEnd [[587.67,899.62,238.71],[0.12409,-0.352352,-0.927566,-0.00842906],[0,0,0,0],[9E+09,9E+09,9E+09,9E+09,9E+09,9E+09]], v2000, seam1, weld1, fine, tWeldGun;
        MoveL [[598.31,892.81,238.71],[0.124086,-0.352342,-0.92757,-0.00842513],[0,0,0,0],[9E+09,9E+09,9E+09,9E+09,9E+09,9E+09]], v2000, z50, tWeldGun;
        MoveL [[596.39,890.92,393.33],[0.0074253,0.358861,0.933351,-0.00450745],[0,-1,1,0],[9E+09,9E+09,9E+09,9E+09,9E+09,9E+09]], v2000, z50, tWeldGun;
        MoveJ [[789.06,951.65,390.33],[0.00949985,-0.930203,-0.363761,-0.0480674],[0,-1,2,0],[9E+09,9E+09,9E+09,9E+09,9E+09,9E+09]], v2000, z50, tWeldGun;
        MoveL [[788.48,977.01,243.53],[0.00949539,-0.930202,-0.363762,-0.04807],[0,-1,2,0],[9E+09,9E+09,9E+09,9E+09,9E+09,9E+09]], v2000, z50, tWeldGun;
        ArcLStart [[800.77,1009.10,224.49],[0.00949471,-0.930201,-0.363765,-0.0480669],[0,-1,2,0],[9E+09,9E+09,9E+09,9E+09,9E+09,9E+09]], v2000, seam1, weld1, fine, tWeldGun;
        ArcCEnd [[800.83,1002.73,223.51],[0.00949454,-0.930202,-0.363763,-0.0480661],[0,-1,2,0],[9E+09,9E+09,9E+09,9E+09,9E+09,9E+09]], [[800.64,994.73,216.46],[0.00949598,-0.930202,-0.363763,-0.0480697],[0,-1,2,0],[9E+09,9E+09,9E+09,9E+09,9E+09,9E+09]], v2000, seam1, weld1, fine, tWeldGun;
        MoveL [[788.48,977.01,243.53],[0.00949503,-0.930202,-0.363762,-0.0480694],[0,-1,2,0],[9E+09,9E+09,9E+09,9E+09,9E+09,9E+09]], v2000, z50, tWeldGun;
        MoveL [[906.84,977.00,243.53],[0.00948964,-0.930202,-0.363763,-0.048071],[0,-1,2,0],[9E+09,9E+09,9E+09,9E+09,9E+09,9E+09]], v2000, z50, tWeldGun;
        MoveL [[981.13,1018.84,236.94],[0.0277879,-0.999241,0.0122735,0.0243642],[0,0,2,0],[9E+09,9E+09,9E+09,9E+09,9E+09,9E+09]], v2000, z50, tWeldGun;
        ArcLStart [[998.26,1018.84,216.94],[0.0277898,-0.999242,0.0122717,0.0243625],[0,0,2,0],[9E+09,9E+09,9E+09,9E+09,9E+09,9E+09]], v2000, seam1, weld1, fine, tWeldGun;
        ArcCEnd [[997.07,1007.23,224.89],[0.029702,-0.996512,-0.0774882,0.00874333],[0,0,2,0],[9E+09,9E+09,9E+09,9E+09,9E+09,9E+09]], [[995.93,994.72,218.64],[0.0208608,-0.990631,-0.127472,-0.0443343],[0,-1,2,0],[9E+09,9E+09,9E+09,9E+09,9E+09,9E+09]], v2000, seam1, weld1, fine, tWeldGun;
        !ArcLStart [[994.32,1004.64,224.71],[0.00949583,-0.930204,-0.363757,-0.0480657],[0,-1,2,0],[9E+09,9E+09,9E+09,9E+09,9E+09,9E+09]], v2000, seam1, weld1, fine, tWeldGun;
        !ArcCEnd [[994.01,999.78,223.48],[0.00949505,-0.930205,-0.363755,-0.0480697],[0,-1,2,0],[9E+09,9E+09,9E+09,9E+09,9E+09,9E+09]], [[994.00,993.33,218.56],[0.00949459,-0.930206,-0.363753,-0.0480676],[0,-1,2,0],[9E+09,9E+09,9E+09,9E+09,9E+09,9E+09]], v2000, seam1, weld1, fine, tWeldGun;
        MoveL [[977.11,977.01,243.53],[0.00949791,-0.930204,-0.363759,-0.0480676],[0,-1,2,0],[9E+09,9E+09,9E+09,9E+09,9E+09,9E+09]], v2000, z50, tWeldGun;
        MoveJ [[908.06,1013.32,240.80],[0.0700597,0.723401,0.681885,-0.0825583],[0,-1,1,0],[9E+09,9E+09,9E+09,9E+09,9E+09,9E+09]], v2000, z50, tWeldGun;
        ArcLStart [[902.18,1018.78,215.06],[0.070057,0.723402,0.681883,-0.0825619],[0,-1,1,0],[9E+09,9E+09,9E+09,9E+09,9E+09,9E+09]], v2000, seam1, weld1, fine, tWeldGun;
        ArcLEnd [[918.48,1018.66,214.76],[0.070062,0.7234,0.681885,-0.0825613],[0,-1,1,0],[9E+09,9E+09,9E+09,9E+09,9E+09,9E+09]], v2000, seam1, weld1, fine, tWeldGun;
        MoveL [[908.06,1013.32,240.80],[0.0700583,0.723402,0.681884,-0.0825593],[0,-1,1,0],[9E+09,9E+09,9E+09,9E+09,9E+09,9E+09]], v2000, z50, tWeldGun;
        MoveL [[846.08,1013.39,247.25],[0.0507799,-0.0495794,-0.997307,-0.0184924],[0,0,0,0],[9E+09,9E+09,9E+09,9E+09,9E+09,9E+09]], v2000, z50, tWeldGun;
        ArcLStart [[834.58,1013.39,218.61],[0.0507838,-0.0495805,-0.997307,-0.0184894],[0,0,0,0],[9E+09,9E+09,9E+09,9E+09,9E+09,9E+09]], v2000, seam1, weld1, fine, tWeldGun;
        ArcCEnd [[834.00,1000.61,224.81],[0.0507801,-0.0495801,-0.997307,-0.0184966],[0,0,0,0],[9E+09,9E+09,9E+09,9E+09,9E+09,9E+09]], [[833.98,990.52,219.87],[0.0507849,-0.0495837,-0.997307,-0.0184887],[0,0,0,0],[9E+09,9E+09,9E+09,9E+09,9E+09,9E+09]], v2000, seam1, weld1, fine, tWeldGun;
        !ArcLStart [[832.30,1004.06,225.07],[0.0539943,-0.347638,-0.93607,-0.00233854],[0,0,0,0],[9E+09,9E+09,9E+09,9E+09,9E+09,9E+09]], v2000, seam1, weld1, fine, tWeldGun;
        !ArcCEnd [[832.32,994.31,222.94],[0.053993,-0.347643,-0.936068,-0.00233938],[0,0,0,0],[9E+09,9E+09,9E+09,9E+09,9E+09,9E+09]], [[831.87,989.29,217.70],[0.0539945,-0.347647,-0.936067,-0.00234493],[0,0,0,0],[9E+09,9E+09,9E+09,9E+09,9E+09,9E+09]], v2000, seam1, weld1, fine, tWeldGun;
        MoveL [[839.22,950.99,227.48],[0.053995,-0.347643,-0.936068,-0.00234114],[0,0,0,0],[9E+09,9E+09,9E+09,9E+09,9E+09,9E+09]], v2000, z50, tWeldGun;
        MoveJ [[1036.23,950.99,242.67],[0.053999,-0.347644,-0.936067,-0.00233811],[0,0,0,0],[9E+09,9E+09,9E+09,9E+09,9E+09,9E+09]], v2000, z50, tWeldGun;
        MoveL [[1034.19,997.49,238.90],[0.0539917,-0.347649,-0.936066,-0.00234755],[0,0,0,0],[9E+09,9E+09,9E+09,9E+09,9E+09,9E+09]], v2000, z50, tWeldGun;
        ArcLStart [[1024.80,997.49,225.67],[0.0539954,-0.34765,-0.936065,-0.00234811],[0,0,0,0],[9E+09,9E+09,9E+09,9E+09,9E+09,9E+09]], v2000, seam1, weld1, fine, tWeldGun;
        ArcCEnd [[1024.55,990.61,222.19],[0.0539956,-0.34765,-0.936065,-0.00235039],[0,0,0,0],[9E+09,9E+09,9E+09,9E+09,9E+09,9E+09]], [[1024.07,987.70,218.42],[0.0539928,-0.34765,-0.936065,-0.00235076],[0,0,0,0],[9E+09,9E+09,9E+09,9E+09,9E+09,9E+09]], v2000, seam1, weld1, fine, tWeldGun;
        MoveL [[1033.83,965.50,229.76],[0.0539962,-0.347646,-0.936067,-0.00234663],[0,0,0,0],[9E+09,9E+09,9E+09,9E+09,9E+09,9E+09]], v2000, z50, tWeldGun;
        MoveJ [[1033.84,965.49,350.46],[0.0539882,-0.347656,-0.936064,-0.00234748],[0,0,0,0],[9E+09,9E+09,9E+09,9E+09,9E+09,9E+09]], v2000, z50, tWeldGun;
        MoveJ [[1347.96,783.06,372.87],[0.00984194,0.891447,-0.445771,0.0807076],[0,-1,-1,0],[9E+09,9E+09,9E+09,9E+09,9E+09,9E+09]], v2000, z50, tWeldGun;
        MoveL [[1347.96,783.06,215.73],[0.00984129,0.891446,-0.445772,0.0807059],[0,-1,-1,0],[9E+09,9E+09,9E+09,9E+09,9E+09,9E+09]], v2000, z50, tWeldGun;
        MoveL [[1316.56,752.56,159.88],[0.0209011,-0.89489,0.445389,-0.0190805],[0,-1,-2,0],[9E+09,9E+09,9E+09,9E+09,9E+09,9E+09]], v2000, z50, tWeldGun;
        ArcLStart [[1320.20,746.78,151.71],[0.0209022,-0.894892,0.445384,-0.0190853],[0,-1,-2,0],[9E+09,9E+09,9E+09,9E+09,9E+09,9E+09]], v2000, seam1, weld1, fine, tWeldGun;
        ArcLEnd [[1327.90,749.83,151.71],[0.00768801,0.891824,-0.445818,0.076403],[0,-1,-1,0],[9E+09,9E+09,9E+09,9E+09,9E+09,9E+09]], v2000, seam1, weld1, fine, tWeldGun;
        MoveL [[1347.96,754.56,156.13],[0.00984109,0.891446,-0.445773,0.0807062],[0,-1,-1,0],[9E+09,9E+09,9E+09,9E+09,9E+09,9E+09]], v2000, z50, tWeldGun;
        ArcLStart [[1352.99,747.42,152.41],[0.00982573,0.891444,-0.445777,0.0807065],[0,-1,-1,0],[9E+09,9E+09,9E+09,9E+09,9E+09,9E+09]], v2000, seam1, weld1, fine, tWeldGun;
        ArcLEnd [[1352.65,741.15,152.42],[0.00982318,0.891443,-0.445779,0.0807064],[0,-1,-1,0],[9E+09,9E+09,9E+09,9E+09,9E+09,9E+09]], v2000, seam1, weld1, fine, tWeldGun;
        MoveL [[1347.96,754.56,156.13],[0.00983935,0.891446,-0.445773,0.0807069],[0,-1,-1,0],[9E+09,9E+09,9E+09,9E+09,9E+09,9E+09]], v2000, z50, tWeldGun;
        ArcLStart [[1355.48,749.43,152.14],[0.0167004,0.784307,-0.599607,0.158289],[0,-1,-1,0],[9E+09,9E+09,9E+09,9E+09,9E+09,9E+09]], v2000, seam1, weld1, fine, tWeldGun;
        ArcLEnd [[1370.55,748.65,152.23],[0.0167007,0.784305,-0.599611,0.158283],[0,-1,-1,0],[9E+09,9E+09,9E+09,9E+09,9E+09,9E+09]], v2000, seam1, weld1, fine, tWeldGun;
        MoveL [[1347.96,754.56,156.13],[0.00983754,0.891446,-0.445773,0.0807073],[0,-1,-1,0],[9E+09,9E+09,9E+09,9E+09,9E+09,9E+09]], v2000, z50, tWeldGun;
        MoveL [[1347.96,783.06,215.73],[0.00984202,0.891446,-0.445773,0.0807042],[0,-1,-1,0],[9E+09,9E+09,9E+09,9E+09,9E+09,9E+09]], v2000, z50, tWeldGun;
        MoveJ [[1347.96,783.06,372.87],[0.00984194,0.891447,-0.445771,0.0807076],[0,-1,-1,0],[9E+09,9E+09,9E+09,9E+09,9E+09,9E+09]], v2000, z50, tWeldGun;
        MoveJ [[1243.08,1189.85,446.80],[0.0317216,-0.940169,-0.329226,-0.0817694],[0,-1,-2,0],[9E+09,9E+09,9E+09,9E+09,9E+09,9E+09]], v2000, z50, tWeldGun;
        MoveL [[1350.24,1276.86,233.58],[0.00374769,-0.826032,-0.546835,-0.136485],[0,-1,-3,0],[9E+09,9E+09,9E+09,9E+09,9E+09,9E+09]], v2000, z50, tWeldGun;
        MoveL [[1355.88,1282.16,152.59],[0.00375538,-0.826034,-0.546834,-0.13648],[0,-1,-3,0],[9E+09,9E+09,9E+09,9E+09,9E+09,9E+09]], v2000, z50, tWeldGun;
        ArcLStart [[1355.88,1288.57,147.39],[0.00375051,-0.826033,-0.546835,-0.13648],[0,-1,-3,0],[9E+09,9E+09,9E+09,9E+09,9E+09,9E+09]], v2000, seam1, weld1, fine, tWeldGun;
        ArcLEnd [[1373.32,1287.50,147.24],[0.0228371,-0.820765,-0.54637,-0.165236],[0,-1,-3,0],[9E+09,9E+09,9E+09,9E+09,9E+09,9E+09]], v2000, seam1, weld1, fine, tWeldGun;
        MoveL [[1355.88,1282.16,152.59],[0.00375538,-0.826034,-0.546834,-0.13648],[0,-1,-3,0],[9E+09,9E+09,9E+09,9E+09,9E+09,9E+09]], v2000, z50, tWeldGun;
        MoveL [[1350.24,1276.86,233.58],[0.00374769,-0.826032,-0.546835,-0.136485],[0,-1,-3,0],[9E+09,9E+09,9E+09,9E+09,9E+09,9E+09]], v2000, z50, tWeldGun;
        MoveJ [[1320.11,1293.07,266.50],[0.0536358,-0.969174,-0.205085,-0.125562],[0,-1,-2,0],[9E+09,9E+09,9E+09,9E+09,9E+09,9E+09]], v2000, z50, tWeldGun;
        ArcLStart [[1356.30,1291.30,148.20],[0.05364,-0.969174,-0.205087,-0.125558],[0,-1,-2,0],[9E+09,9E+09,9E+09,9E+09,9E+09,9E+09]], v2000, seam1, weld1, fine, tWeldGun;
        ArcLEnd [[1356.29,1298.91,148.06],[0.0536359,-0.969174,-0.205083,-0.125564],[0,-1,-2,0],[9E+09,9E+09,9E+09,9E+09,9E+09,9E+09]], v2000, seam1, weld1, fine, tWeldGun;
        MoveL [[1329.72,1299.21,215.78],[0.0537513,-0.969121,-0.205157,-0.125801],[0,-1,-2,0],[9E+09,9E+09,9E+09,9E+09,9E+09,9E+09]], v2000, z50, tWeldGun;
        MoveJ [[1216.28,1241.83,331.03],[0.0332363,-0.75828,0.650623,-0.0244124],[0,-1,-1,0],[9E+09,9E+09,9E+09,9E+09,9E+09,9E+09]], v2000, z50, tWeldGun;
        MoveJ [[1171.23,1265.55,248.67],[0.0112538,-0.49523,-0.865498,-0.0743955],[0,0,1,0],[9E+09,9E+09,9E+09,9E+09,9E+09,9E+09]], v2000, z50, tWeldGun;
        MoveL [[1180.49,1309.49,177.26],[0.011255,-0.495231,-0.865497,-0.0743965],[0,0,1,0],[9E+09,9E+09,9E+09,9E+09,9E+09,9E+09]], v2000, z50, tWeldGun;
        ArcLStart [[1163.79,1331.58,147.05],[0.00531972,0.293521,0.952987,0.0750486],[0,0,0,0],[9E+09,9E+09,9E+09,9E+09,9E+09,9E+09]], v2000, seam1, weld1, fine, tWeldGun;
        ArcL [[1161.70,1327.84,146.65],[0.00315672,-0.400303,-0.913269,-0.0754173],[0,0,1,0],[9E+09,9E+09,9E+09,9E+09,9E+09,9E+09]], v2000, seam1, weld1, z10, tWeldGun;
        ArcLEnd [[1155.96,1328.11,146.69],[0.0112533,-0.495228,-0.865499,-0.0743924],[0,0,1,0],[9E+09,9E+09,9E+09,9E+09,9E+09,9E+09]], v2000, seam1, weld1, fine, tWeldGun;
        MoveL [[1180.49,1309.49,177.26],[0.011256,-0.495234,-0.865495,-0.0743986],[0,0,1,0],[9E+09,9E+09,9E+09,9E+09,9E+09,9E+09]], v2000, z50, tWeldGun;
        MoveL [[1127.51,1196.48,328.36],[0.0105109,-0.520314,-0.850078,-0.0808158],[0,0,1,0],[9E+09,9E+09,9E+09,9E+09,9E+09,9E+09]], v2000, z50, tWeldGun;
        MoveJ [[1315.68,894.79,439.08],[0.00499,-0.647121,-0.75376,-0.114262],[0,0,1,0],[9E+09,9E+09,9E+09,9E+09,9E+09,9E+09]], v2000, z50, tWeldGun;
        MoveL [[1315.68,894.79,299.62],[0.00499052,-0.647117,-0.753763,-0.114257],[0,0,1,0],[9E+09,9E+09,9E+09,9E+09,9E+09,9E+09]], v2000, z50, tWeldGun;
        ArcLStart [[1315.67,906.51,284.11],[0.00499368,-0.64712,-0.753761,-0.114256],[0,0,1,0],[9E+09,9E+09,9E+09,9E+09,9E+09,9E+09]], v2000, seam1, weld1, fine, tWeldGun;
        ArcL [[1309.27,906.63,281.43],[0.00498355,-0.647114,-0.753765,-0.114264],[0,0,1,0],[9E+09,9E+09,9E+09,9E+09,9E+09,9E+09]], v2000, seam1, weld1, z10, tWeldGun;
        ArcL [[1305.32,907.63,275.20],[0.0110866,-0.686809,-0.717759,-0.113983],[0,0,1,0],[9E+09,9E+09,9E+09,9E+09,9E+09,9E+09]], v2000, seam1, weld1, z10, tWeldGun;
        ArcLEnd [[1307.04,907.15,262.81],[0.0224547,-0.755088,-0.645572,-0.11214],[0,0,1,0],[9E+09,9E+09,9E+09,9E+09,9E+09,9E+09]], v2000, seam1, weld1, fine, tWeldGun;
        MoveL [[1298.77,889.34,292.35],[0.0176288,-0.726709,-0.677357,-0.113003],[0,0,1,0],[9E+09,9E+09,9E+09,9E+09,9E+09,9E+09]], v2000, z50, tWeldGun;
        MoveL [[1298.77,889.34,399.80],[0.0176262,-0.726709,-0.677359,-0.112998],[0,0,1,0],[9E+09,9E+09,9E+09,9E+09,9E+09,9E+09]], v2000, z50, tWeldGun;
        MoveJ [[1298.77,1177.13,415.68],[0.0147585,-0.72843,0.683569,-0.0436575],[0,-1,3,0],[9E+09,9E+09,9E+09,9E+09,9E+09,9E+09]], v2000, z50, tWeldGun;
        MoveL [[1328.36,1145.05,301.27],[0.0166266,-0.70627,0.706403,-0.0435886],[0,-1,3,0],[9E+09,9E+09,9E+09,9E+09,9E+09,9E+09]], v2000, z50, tWeldGun;
        ArcLStart [[1328.36,1130.27,283.35],[0.0166276,-0.706273,0.706401,-0.0435885],[0,-1,3,0],[9E+09,9E+09,9E+09,9E+09,9E+09,9E+09]], v2000, seam1, weld1, fine, tWeldGun;
        ArcL [[1319.73,1130.51,280.17],[0.0166296,-0.706269,0.706404,-0.0435936],[0,-1,3,0],[9E+09,9E+09,9E+09,9E+09,9E+09,9E+09]], v2000, seam1, weld1, z10, tWeldGun;
        ArcL [[1315.47,1131.48,272.35],[0.0122087,-0.770736,0.635448,-0.0449745],[0,-1,3,0],[9E+09,9E+09,9E+09,9E+09,9E+09,9E+09]], v2000, seam1, weld1, z10, tWeldGun;
        ArcLEnd [[1316.65,1131.40,262.39],[0.0105015,-0.796363,0.603016,-0.045463],[0,-1,3,0],[9E+09,9E+09,9E+09,9E+09,9E+09,9E+09]], v2000, seam1, weld1, fine, tWeldGun;
        MoveL [[1313.43,1138.61,285.53],[0.00972558,-0.806639,0.5892,-0.0456362],[0,-1,3,0],[9E+09,9E+09,9E+09,9E+09,9E+09,9E+09]], v2000, z50, tWeldGun;
        MoveL [[1313.43,1138.61,365.92],[0.00972476,-0.806636,0.589204,-0.0456343],[0,-1,3,0],[9E+09,9E+09,9E+09,9E+09,9E+09,9E+09]], v2000, z50, tWeldGun;
        MoveJ [[1293.32,929.69,364.64],[0.00412107,0.747631,-0.660921,0.0649269],[0,-1,3,0],[9E+09,9E+09,9E+09,9E+09,9E+09,9E+09]], v2000, z50, tWeldGun;
        MoveL [[1323.23,929.97,305.98],[0.00411535,0.747626,-0.660926,0.0649253],[0,-1,3,0],[9E+09,9E+09,9E+09,9E+09,9E+09,9E+09]], v2000, z50, tWeldGun;
        ArcLStart [[1323.23,914.39,284.82],[0.00411841,0.74763,-0.660922,0.0649246],[0,-1,3,0],[9E+09,9E+09,9E+09,9E+09,9E+09,9E+09]], v2000, seam1, weld1, fine, tWeldGun;
        ArcL [[1316.46,915.59,283.28],[0.00411592,0.747629,-0.660923,0.0649282],[0,-1,3,0],[9E+09,9E+09,9E+09,9E+09,9E+09,9E+09]], v2000, seam1, weld1, z10, tWeldGun;
        ArcL [[1311.88,917.15,279.12],[0.014501,0.844182,-0.532094,0.0634211],[0,-1,3,0],[9E+09,9E+09,9E+09,9E+09,9E+09,9E+09]], v2000, seam1, weld1, z10, tWeldGun;
        ArcL [[1310.22,917.07,274.96],[0.0200337,0.887795,-0.455617,0.0618968],[0,-1,3,0],[9E+09,9E+09,9E+09,9E+09,9E+09,9E+09]], v2000, seam1, weld1, z10, tWeldGun;
        ArcLEnd [[1309.90,917.51,269.84],[0.0200294,0.887796,-0.455617,0.0618953],[0,-1,3,0],[9E+09,9E+09,9E+09,9E+09,9E+09,9E+09]], v2000, seam1, weld1, fine, tWeldGun;
        MoveL [[1296.35,932.68,287.99],[0.02003,0.887794,-0.455619,0.0618964],[0,-1,3,0],[9E+09,9E+09,9E+09,9E+09,9E+09,9E+09]], v2000, z50, tWeldGun;
        MoveJ [[1215.67,1015.80,404.36],[0.0353284,0.697382,0.715276,-0.0281125],[0,-1,1,0],[9E+09,9E+09,9E+09,9E+09,9E+09,9E+09]], v2000, z50, tWeldGun;
        MoveL [[1312.41,1101.19,308.41],[0.102528,0.611422,0.783422,0.0436021],[0,-1,1,0],[9E+09,9E+09,9E+09,9E+09,9E+09,9E+09]], v2000, z50, tWeldGun;
        ArcLStart [[1321.22,1121.83,283.15],[0.102524,0.611424,0.783421,0.0435993],[0,-1,1,0],[9E+09,9E+09,9E+09,9E+09,9E+09,9E+09]], v2000, seam1, weld1, fine, tWeldGun;
        ArcL [[1311.89,1122.37,280.50],[0.107604,0.674947,0.725922,0.0768442],[0,-1,1,0],[9E+09,9E+09,9E+09,9E+09,9E+09,9E+09]], v2000, seam1, weld1, z10, tWeldGun;
        ArcL [[1306.23,1123.51,272.07],[0.116072,0.796167,0.575196,0.147632],[0,-1,1,0],[9E+09,9E+09,9E+09,9E+09,9E+09,9E+09]], v2000, seam1, weld1, z10, tWeldGun;
        ArcLEnd [[1307.31,1124.41,262.39],[0.0915035,0.876468,0.443324,0.163996],[0,-1,2,0],[9E+09,9E+09,9E+09,9E+09,9E+09,9E+09]], v2000, seam1, weld1, fine, tWeldGun;
        MoveL [[1289.63,1114.13,280.54],[0.0915046,0.876467,0.443325,0.163997],[0,-1,2,0],[9E+09,9E+09,9E+09,9E+09,9E+09,9E+09]], v2000, z50, tWeldGun;
        MoveJ [[1109.96,1114.13,421.78],[0.0101977,-0.621988,-0.782954,-0.00307298],[0,0,1,0],[9E+09,9E+09,9E+09,9E+09,9E+09,9E+09]], v2000, z50, tWeldGun;
        MoveJ [[1109.96,1114.13,364.40],[0.00131475,0.464447,-0.885537,-0.0105718],[0,0,-1,0],[9E+09,9E+09,9E+09,9E+09,9E+09,9E+09]], v2000, z50, tWeldGun;
        ArcLStart [[1036.63,1016.42,223.33],[0.0650607,0.421323,-0.904498,-0.0117699],[0,0,-1,0],[9E+09,9E+09,9E+09,9E+09,9E+09,9E+09]], v2000, seam1, weld1, fine, tWeldGun;
        ArcLStart [[1028.63,1000.86,223.33],[0.0650603,0.42132,-0.904499,-0.0117734],[0,0,-1,0],[9E+09,9E+09,9E+09,9E+09,9E+09,9E+09]], v2000, seam1, weld1, fine, tWeldGun;
        ArcCEnd [[1028.64,1009.32,219.09],[0.0650595,0.421319,-0.904499,-0.0117742],[0,0,-1,0],[9E+09,9E+09,9E+09,9E+09,9E+09,9E+09]], [[1027.83,1012.68,212.45],[0.06506,0.421317,-0.9045,-0.011777],[0,0,-1,0],[9E+09,9E+09,9E+09,9E+09,9E+09,9E+09]], v2000, seam1, weld1, fine, tWeldGun;
        MoveL [[1049.24,1103.63,212.45],[0.0650569,0.421325,-0.904497,-0.0117687],[0,0,-1,0],[9E+09,9E+09,9E+09,9E+09,9E+09,9E+09]], v2000, z50, tWeldGun;
        MoveJ [[1073.62,1160.32,191.52],[0.00981048,-0.532691,-0.846243,-0.0041708],[0,0,1,0],[9E+09,9E+09,9E+09,9E+09,9E+09,9E+09]], v2000, z50, tWeldGun;
        ArcLStart [[1073.62,1172.41,171.28],[0.00980629,-0.53269,-0.846243,-0.00417083],[0,0,1,0],[9E+09,9E+09,9E+09,9E+09,9E+09,9E+09]], v2000, seam1, weld1, fine, tWeldGun;
        ArcL [[1077.07,1172.40,171.28],[0.00980141,-0.532687,-0.846245,-0.00417154],[0,0,1,0],[9E+09,9E+09,9E+09,9E+09,9E+09,9E+09]], v2000, seam1, weld1, z10, tWeldGun;
        ArcLEnd [[1077.19,1192.34,171.28],[0.00980227,-0.53269,-0.846244,-0.00417337],[0,0,1,0],[9E+09,9E+09,9E+09,9E+09,9E+09,9E+09]], v2000, seam1, weld1, fine, tWeldGun;
        MoveL [[1077.19,1192.33,243.58],[0.00979899,-0.532687,-0.846245,-0.00417084],[0,0,1,0],[9E+09,9E+09,9E+09,9E+09,9E+09,9E+09]], v2000, z50, tWeldGun;
        MoveJ [[896.08,1185.31,243.59],[0.0106539,-0.810951,-0.585017,-0.000211783],[0,0,1,0],[9E+09,9E+09,9E+09,9E+09,9E+09,9E+09]], v2000, z50, tWeldGun;
        MoveL [[847.94,1174.96,180.44],[0.0106474,-0.810952,-0.585015,-0.000199873],[0,0,1,0],[9E+09,9E+09,9E+09,9E+09,9E+09,9E+09]], v2000, z50, tWeldGun;
        ArcLStart [[847.94,1178.29,171.99],[0.0106502,-0.810958,-0.585008,-0.000198714],[0,0,1,0],[9E+09,9E+09,9E+09,9E+09,9E+09,9E+09]], v2000, seam1, weld1, fine, tWeldGun;
        ArcL [[841.70,1178.29,171.99],[0.0106527,-0.810961,-0.585004,-0.000197211],[0,0,1,0],[9E+09,9E+09,9E+09,9E+09,9E+09,9E+09]], v2000, seam1, weld1, z10, tWeldGun;
        ArcLEnd [[841.89,1198.31,172.00],[0.010656,-0.810961,-0.585003,-0.000197755],[0,0,1,0],[9E+09,9E+09,9E+09,9E+09,9E+09,9E+09]], v2000, seam1, weld1, fine, tWeldGun;
        MoveL [[841.89,1198.30,237.78],[0.0106497,-0.810957,-0.585008,-0.000196087],[0,0,1,0],[9E+09,9E+09,9E+09,9E+09,9E+09,9E+09]], v2000, z50, tWeldGun;
        MoveJ [[776.51,1070.49,265.80],[0.0297353,0.902395,-0.424895,0.065298],[0,-1,3,0],[9E+09,9E+09,9E+09,9E+09,9E+09,9E+09]], v2000, z50, tWeldGun;
        MoveL [[796.46,1037.22,231.78],[0.0297265,0.902397,-0.42489,0.0652986],[0,-1,3,0],[9E+09,9E+09,9E+09,9E+09,9E+09,9E+09]], v2000, z50, tWeldGun;
        ArcLStart [[806.21,1011.09,223.52],[0.0297296,0.902398,-0.424889,0.0652986],[0,-1,3,0],[9E+09,9E+09,9E+09,9E+09,9E+09,9E+09]], v2000, seam1, weld1, fine, tWeldGun;
        ArcCEnd [[806.58,1017.74,218.88],[0.0297307,0.902396,-0.424892,0.0652987],[0,-1,3,0],[9E+09,9E+09,9E+09,9E+09,9E+09,9E+09]], [[807.15,1020.29,213.49],[0.0297307,0.902397,-0.424891,0.0652975],[0,-1,3,0],[9E+09,9E+09,9E+09,9E+09,9E+09,9E+09]], v2000, seam1, weld1, fine, tWeldGun;
        MoveL [[796.46,1037.21,231.78],[0.0297271,0.902397,-0.424892,0.0652986],[0,-1,3,0],[9E+09,9E+09,9E+09,9E+09,9E+09,9E+09]], v2000, z50, tWeldGun;
        MoveL [[762.67,1095.92,288.21],[0.0297374,0.902391,-0.424905,0.0652845],[0,-1,3,0],[9E+09,9E+09,9E+09,9E+09,9E+09,9E+09]], v2000, z50, tWeldGun;
        MoveJ [[841.89,1352.46,298.87],[0.00876612,-0.999943,-0.00059963,0.00606815],[0,0,2,0],[9E+09,9E+09,9E+09,9E+09,9E+09,9E+09]], v2000, z50, tWeldGun;
        MoveL [[860.38,1345.02,209.40],[0.00876018,-0.999943,-0.000602657,0.00607125],[0,0,2,0],[9E+09,9E+09,9E+09,9E+09,9E+09,9E+09]], v2000, z50, tWeldGun;
        ArcLStart [[866.55,1318.07,196.97],[0.00876075,-0.999943,-0.000600774,0.00606973],[0,0,2,0],[9E+09,9E+09,9E+09,9E+09,9E+09,9E+09]], v2000, seam1, weld1, fine, tWeldGun;
        ArcLEnd [[891.54,1317.24,197.29],[0.00876285,-0.999943,-0.000598515,0.0060678],[0,0,2,0],[9E+09,9E+09,9E+09,9E+09,9E+09,9E+09]], v2000, seam1, weld1, fine, tWeldGun;
        MoveL [[860.38,1345.01,209.40],[0.00875904,-0.999943,-0.000604188,0.0060694],[0,0,2,0],[9E+09,9E+09,9E+09,9E+09,9E+09,9E+09]], v2000, z50, tWeldGun;
        ArcLStart [[867.55,1369.38,197.89],[0.00876007,-0.999943,-0.000601752,0.00606945],[0,0,2,0],[9E+09,9E+09,9E+09,9E+09,9E+09,9E+09]], v2000, seam1, weld1, fine, tWeldGun;
        ArcLEnd [[891.71,1368.31,197.38],[0.0087637,-0.999943,-0.000599053,0.00606671],[0,0,2,0],[9E+09,9E+09,9E+09,9E+09,9E+09,9E+09]], v2000, seam1, weld1, fine, tWeldGun;
        MoveL [[860.38,1345.01,209.40],[0.00875904,-0.999943,-0.000604188,0.0060694],[0,0,2,0],[9E+09,9E+09,9E+09,9E+09,9E+09,9E+09]], v2000, z50, tWeldGun;
        MoveJ [[860.38,1345.01,514.65],[0.0217807,0.445093,-0.894911,0.0234977],[0,-1,4,0],[9E+09,9E+09,9E+09,9E+09,9E+09,9E+09]], v2000, z50, tWeldGun;
        MoveL [[639.99,1413.86,304.90],[0.0217783,0.445075,-0.89492,0.0234899],[0,-1,4,0],[9E+09,9E+09,9E+09,9E+09,9E+09,9E+09]], v2000, z50, tWeldGun;
        ArcLStart [[640.82,1413.04,292.30],[0.0217816,0.44508,-0.894917,0.0234968],[0,-1,4,0],[9E+09,9E+09,9E+09,9E+09,9E+09,9E+09]], v2000, seam1, weld1, fine, tWeldGun;
        ArcL [[640.81,1421.22,292.30],[0.0217787,0.445084,-0.894915,0.023501],[0,-1,4,0],[9E+09,9E+09,9E+09,9E+09,9E+09,9E+09]], v2000, seam1, weld1, z10, tWeldGun;
        ArcLEnd [[643.69,1424.41,285.38],[0.0217789,0.445076,-0.894919,0.0234968],[0,-1,4,0],[9E+09,9E+09,9E+09,9E+09,9E+09,9E+09]], v2000, seam1, weld1, fine, tWeldGun;
        MoveL [[653.57,1429.85,310.94],[0.0217703,0.445079,-0.894918,0.0235122],[0,-1,4,0],[9E+09,9E+09,9E+09,9E+09,9E+09,9E+09]], v2000, z50, tWeldGun;
        MoveJ [[709.58,1231.98,346.73],[0.0217822,0.445081,-0.894917,0.0234906],[0,-1,4,0],[9E+09,9E+09,9E+09,9E+09,9E+09,9E+09]], v2000, z50, tWeldGun;
        MoveL [[683.31,1199.15,252.11],[0.124415,0.511131,-0.850017,0.0271387],[0,0,3,0],[9E+09,9E+09,9E+09,9E+09,9E+09,9E+09]], v2000, z50, tWeldGun;
        ArcLStart [[667.51,1194.10,237.76],[0.124418,0.511134,-0.850015,0.0271423],[0,0,3,0],[9E+09,9E+09,9E+09,9E+09,9E+09,9E+09]], v2000, seam1, weld1, fine, tWeldGun;
        ArcLEnd [[654.60,1194.10,237.43],[0.124417,0.511137,-0.850013,0.0271385],[0,0,3,0],[9E+09,9E+09,9E+09,9E+09,9E+09,9E+09]], v2000, seam1, weld1, fine, tWeldGun;
        MoveJ [[683.31,1199.15,252.11],[0.124416,0.511131,-0.850017,0.0271397],[0,0,3,0],[9E+09,9E+09,9E+09,9E+09,9E+09,9E+09]], v2000, z50, tWeldGun;
        MoveJ [[723.69,1200.81,262.90],[0.0068756,0.765719,0.642685,-0.0241463],[0,0,1,0],[9E+09,9E+09,9E+09,9E+09,9E+09,9E+09]], v2000, z50, tWeldGun;
        MoveL [[664.53,1160.37,249.94],[0.0631843,-0.602384,-0.795485,-0.0185755],[0,0,1,0],[9E+09,9E+09,9E+09,9E+09,9E+09,9E+09]], v2000, z50, tWeldGun;
        ArcLStart [[658.69,1174.66,238.35],[0.0631852,-0.602385,-0.795484,-0.0185755],[0,0,1,0],[9E+09,9E+09,9E+09,9E+09,9E+09,9E+09]], v2000, seam1, weld1, fine, tWeldGun;
        ArcLEnd [[643.69,1174.96,238.35],[0.0631876,-0.602387,-0.795482,-0.0185751],[0,0,1,0],[9E+09,9E+09,9E+09,9E+09,9E+09,9E+09]], v2000, seam1, weld1, fine, tWeldGun;
        MoveL [[664.54,1160.37,249.95],[0.0631844,-0.602384,-0.795485,-0.0185763],[0,0,1,0],[9E+09,9E+09,9E+09,9E+09,9E+09,9E+09]], v2000, z50, tWeldGun;
        MoveL [[626.06,1116.62,245.09],[0.0562907,-0.378397,-0.923297,-0.0341879],[0,0,1,0],[9E+09,9E+09,9E+09,9E+09,9E+09,9E+09]], v2000, z50, tWeldGun;
        ArcLStart [[606.68,1124.12,235.95],[0.0537334,-0.31151,-0.947958,-0.03808],[0,0,0,0],[9E+09,9E+09,9E+09,9E+09,9E+09,9E+09]], v2000, seam1, weld1, fine, tWeldGun;
        ArcL [[610.23,1126.25,236.98],[0.0537297,-0.31151,-0.947958,-0.038085],[0,0,0,0],[9E+09,9E+09,9E+09,9E+09,9E+09,9E+09]], v2000, seam1, weld1, z10, tWeldGun;
        ArcL [[611.83,1134.82,236.51],[0.0475795,-0.166596,-0.983828,-0.0454387],[0,0,0,0],[9E+09,9E+09,9E+09,9E+09,9E+09,9E+09]], v2000, seam1, weld1, z10, tWeldGun;
        ArcLEnd [[612.61,1141.30,231.94],[0.0432989,-0.0803772,-0.994586,-0.0496289],[0,0,0,0],[9E+09,9E+09,9E+09,9E+09,9E+09,9E+09]], v2000, seam1, weld1, fine, tWeldGun;
        MoveL [[634.94,1141.30,247.49],[0.043301,-0.0803782,-0.994586,-0.0496268],[0,0,0,0],[9E+09,9E+09,9E+09,9E+09,9E+09,9E+09]], v2000, z50, tWeldGun;
        MoveL [[634.94,1125.12,328.27],[0.0432992,-0.0803887,-0.994585,-0.0496263],[0,0,0,0],[9E+09,9E+09,9E+09,9E+09,9E+09,9E+09]], v2000, z50, tWeldGun;
        MoveL [[457.25,1128.02,320.59],[0.0530048,-0.293424,-0.953711,-0.0390987],[0,0,1,0],[9E+09,9E+09,9E+09,9E+09,9E+09,9E+09]], v2000, z50, tWeldGun;
        MoveL [[453.93,1128.02,243.83],[0.0530026,-0.293422,-0.953711,-0.0391014],[0,0,0,0],[9E+09,9E+09,9E+09,9E+09,9E+09,9E+09]], v2000, z50, tWeldGun;
        ArcLStart [[448.01,1128.02,237.69],[0.0530001,-0.293419,-0.953712,-0.0390991],[0,0,0,0],[9E+09,9E+09,9E+09,9E+09,9E+09,9E+09]], v2000, seam1, weld1, fine, tWeldGun;
        ArcL [[448.68,1135.01,236.62],[0.0530018,-0.293422,-0.953712,-0.0391002],[0,0,0,0],[9E+09,9E+09,9E+09,9E+09,9E+09,9E+09]], v2000, seam1, weld1, z10, tWeldGun;
        ArcLEnd [[448.13,1137.96,233.95],[0.0253569,-0.294437,-0.954845,-0.0305833],[0,0,1,0],[9E+09,9E+09,9E+09,9E+09,9E+09,9E+09]], v2000, seam1, weld1, fine, tWeldGun;
        MoveL [[453.93,1128.01,243.82],[0.0529983,-0.293417,-0.953713,-0.0390959],[0,0,0,0],[9E+09,9E+09,9E+09,9E+09,9E+09,9E+09]], v2000, z50, tWeldGun;
        MoveL [[466.16,1128.02,320.59],[0.0530126,-0.293422,-0.953711,-0.0390922],[0,0,0,0],[9E+09,9E+09,9E+09,9E+09,9E+09,9E+09]], v2000, z50, tWeldGun;
        MoveJ [[540.88,1094.01,324.98],[0.0465716,-0.917744,-0.393901,0.0204645],[0,0,2,0],[9E+09,9E+09,9E+09,9E+09,9E+09,9E+09]], v2000, z50, tWeldGun;
        MoveL [[570.75,1122.85,332.79],[0.0731392,-0.941731,-0.323412,-0.0565581],[0,0,2,0],[9E+09,9E+09,9E+09,9E+09,9E+09,9E+09]], v2000, z50, tWeldGun;
        MoveL [[570.75,1122.85,255.78],[0.0731399,-0.941731,-0.32341,-0.0565559],[0,0,2,0],[9E+09,9E+09,9E+09,9E+09,9E+09,9E+09]], v2000, z50, tWeldGun;
        ArcLStart [[582.71,1131.37,237.54],[0.0731403,-0.941731,-0.32341,-0.0565582],[0,0,2,0],[9E+09,9E+09,9E+09,9E+09,9E+09,9E+09]], v2000, seam1, weld1, fine, tWeldGun;
        ArcL [[582.38,1136.98,236.36],[0.0731307,-0.941731,-0.323412,-0.0565597],[0,0,2,0],[9E+09,9E+09,9E+09,9E+09,9E+09,9E+09]], v2000, seam1, weld1, z10, tWeldGun;
        ArcLEnd [[583.09,1141.99,234.56],[0.0225479,-0.94487,-0.324003,-0.0416439],[0,-1,2,0],[9E+09,9E+09,9E+09,9E+09,9E+09,9E+09]], v2000, seam1, weld1, fine, tWeldGun;
        MoveL [[574.54,1124.08,246.84],[0.0225449,-0.944868,-0.324008,-0.041646],[0,-1,2,0],[9E+09,9E+09,9E+09,9E+09,9E+09,9E+09]], v2000, z50, tWeldGun;
        MoveL [[570.75,1122.85,332.79],[0.0731392,-0.941731,-0.323412,-0.0565581],[0,0,2,0],[9E+09,9E+09,9E+09,9E+09,9E+09,9E+09]], v2000, z50, tWeldGun;
        MoveJ [[409.85,1127.87,332.53],[0.0764234,-0.970534,-0.224008,-0.0452129],[0,0,2,0],[9E+09,9E+09,9E+09,9E+09,9E+09,9E+09]], v2000, z50, tWeldGun;
        MoveL [[409.85,1127.87,243.05],[0.07642,-0.970531,-0.224018,-0.0452196],[0,0,2,0],[9E+09,9E+09,9E+09,9E+09,9E+09,9E+09]], v2000, z50, tWeldGun;
        ArcLStart [[425.32,1132.77,236.19],[0.0764209,-0.970532,-0.224016,-0.0452188],[0,0,2,0],[9E+09,9E+09,9E+09,9E+09,9E+09,9E+09]], v2000, seam1, weld1, fine, tWeldGun;
        ArcL [[422.07,1135.01,236.20],[0.0764238,-0.970531,-0.224016,-0.0452267],[0,0,2,0],[9E+09,9E+09,9E+09,9E+09,9E+09,9E+09]], v2000, seam1, weld1, z10, tWeldGun;
        ArcL [[421.40,1145.42,236.51],[0.076427,-0.970532,-0.224012,-0.0452221],[0,0,2,0],[9E+09,9E+09,9E+09,9E+09,9E+09,9E+09]], v2000, seam1, weld1, z10, tWeldGun;
        ArcLEnd [[421.86,1148.90,233.62],[0.0764288,-0.970533,-0.224009,-0.0452204],[0,0,2,0],[9E+09,9E+09,9E+09,9E+09,9E+09,9E+09]], v2000, seam1, weld1, fine, tWeldGun;
        MoveL [[410.52,1148.89,254.72],[0.0764272,-0.970532,-0.224013,-0.0452224],[0,-1,2,0],[9E+09,9E+09,9E+09,9E+09,9E+09,9E+09]], v2000, z50, tWeldGun;
        MoveJ [[375.19,1167.87,243.45],[0.0528195,-0.807077,-0.583732,-0.0713703],[0,0,2,0],[9E+09,9E+09,9E+09,9E+09,9E+09,9E+09]], v2000, z50, tWeldGun;
        ArcLStart [[370.73,1182.47,237.02],[0.0528225,-0.807082,-0.583725,-0.0713674],[0,-1,2,0],[9E+09,9E+09,9E+09,9E+09,9E+09,9E+09]], v2000, seam1, weld1, fine, tWeldGun;
        ArcLEnd [[384.35,1182.15,237.02],[0.0528227,-0.807079,-0.583728,-0.0713688],[0,0,2,0],[9E+09,9E+09,9E+09,9E+09,9E+09,9E+09]], v2000, seam1, weld1, fine, tWeldGun;
        MoveL [[375.19,1167.87,243.45],[0.0528216,-0.80708,-0.583728,-0.0713711],[0,0,2,0],[9E+09,9E+09,9E+09,9E+09,9E+09,9E+09]], v2000, z50, tWeldGun;
        MoveL [[375.18,1167.87,420.71],[0.0528292,-0.807082,-0.583725,-0.0713662],[0,0,2,0],[9E+09,9E+09,9E+09,9E+09,9E+09,9E+09]], v2000, z50, tWeldGun;
        MoveJ [[325.58,1303.69,370.79],[0.00583164,0.896398,-0.437286,0.0722325],[0,-1,3,0],[9E+09,9E+09,9E+09,9E+09,9E+09,9E+09]], v2000, z50, tWeldGun;
        MoveL [[367.90,1220.01,251.05],[0.0289163,0.861018,-0.488492,0.138519],[0,-1,3,0],[9E+09,9E+09,9E+09,9E+09,9E+09,9E+09]], v2000, z50, tWeldGun;
        ArcLStart [[375.64,1202.11,238.64],[0.0289098,0.861019,-0.488491,0.138519],[0,-1,3,0],[9E+09,9E+09,9E+09,9E+09,9E+09,9E+09]], v2000, seam1, weld1, fine, tWeldGun;
        ArcLEnd [[387.67,1202.11,238.13],[0.0289079,0.86102,-0.488489,0.138517],[0,-1,3,0],[9E+09,9E+09,9E+09,9E+09,9E+09,9E+09]], v2000, seam1, weld1, fine, tWeldGun;
        MoveL [[367.90,1220.02,251.05],[0.0289096,0.86102,-0.488489,0.138519],[0,-1,3,0],[9E+09,9E+09,9E+09,9E+09,9E+09,9E+09]], v2000, z50, tWeldGun;
        MoveL [[341.36,1312.96,354.76],[0.102921,0.984281,0.107352,0.095257],[0,-1,2,0],[9E+09,9E+09,9E+09,9E+09,9E+09,9E+09]], v2000, z50, tWeldGun;
        MoveJ [[362.19,1401.46,348.00],[0.136927,0.760883,0.633849,0.0233158],[0,-1,2,0],[9E+09,9E+09,9E+09,9E+09,9E+09,9E+09]], v2000, z50, tWeldGun;
        MoveL [[386.71,1427.70,305.72],[0.136923,0.760889,0.633843,0.0233189],[0,-1,2,0],[9E+09,9E+09,9E+09,9E+09,9E+09,9E+09]], v2000, z50, tWeldGun;
        ArcLStart [[397.94,1427.70,290.22],[0.136925,0.760881,0.633851,0.0233184],[0,-1,2,0],[9E+09,9E+09,9E+09,9E+09,9E+09,9E+09]], v2000, seam1, weld1, fine, tWeldGun;
        ArcL [[397.94,1420.39,290.23],[0.136928,0.760881,0.633851,0.0233202],[0,-1,2,0],[9E+09,9E+09,9E+09,9E+09,9E+09,9E+09]], v2000, seam1, weld1, z10, tWeldGun;
        ArcLEnd [[395.89,1417.16,284.22],[0.136929,0.760881,0.633851,0.0233257],[0,-1,2,0],[9E+09,9E+09,9E+09,9E+09,9E+09,9E+09]], v2000, seam1, weld1, fine, tWeldGun;
        MoveL [[395.87,1417.15,401.58],[0.136926,0.760889,0.633842,0.0233114],[0,-1,2,0],[9E+09,9E+09,9E+09,9E+09,9E+09,9E+09]], v2000, z50, tWeldGun;
        MoveJ [[395.87,1417.15,564.13],[0.136927,0.76089,0.633841,0.0233093],[0,-1,2,0],[9E+09,9E+09,9E+09,9E+09,9E+09,9E+09]], v2000, z50, tWeldGun;
        MoveAbsJ ROBOT_HOME\NoEOffs, v2000, z50, tWeldGun;
        Stop;
        Stop;
        Stop;
	ENDPROC

ENDMODULE